svgs/sharp-light/light-switch-off.svg

<svg xmlns="http://www.w3.org/2000/svg" viewBox="0 0 384 512"><!--! Font Awesome Pro 6.6.0 by @fontawesome - https://fontawesome.com License - https://fontawesome.com/license (Commercial License) Copyright 2024 Fonticons, Inc. --><path d="M176 464l0 16L32 480 32 32l144 0 0 16 0 16 32 0 0-16 0-16 144 0 0 448-144 0 0-16 0-16-32 0 0 16zM0 512l32 0 320 0 32 0 0-32 0-448 0-32L352 0 32 0 0 0 0 32 0 480l0 32zM96 272l0 112 0 32 32 0 128 0 32 0 0-32 0-112 0-32 0-112 0-32-32 0L128 96 96 96l0 32 0 112 0 32zm32-32l0-112 128 0 0 112-128 0zm0 32l128 0 0 112-128 0 0-112zm48 72l32 0 16 0 0-32-16 0-32 0-16 0 0 32 16 0z"/></svg>

<svg xmlns="http://www.w3.org/2000/svg" viewBox="0 0 384 512"><!--! Font Awesome Pro 6.4.0 by @fontawesome - https://fontawesome.com License - https://fontawesome.com/license (Commercial License) Copyright 2023 Fonticons, Inc. --><path d="M176 464v16H32V32H176V48 64h32V48 32H352V480H208V464 448H176v16zM0 512H32 352h32V480 32 0H352 32 0V32 480v32zM96 272V384v32h32H256h32V384 272 240 128 96H256 128 96v32V240v32zm32-32V128H256V240H128zm0 32H256V384H128V272zm48 72h32 16V312H208 176 160v32h16z"/></svg>
